X: 7178
T: Ciarán Patten's
R: jig
M: 6/8
K: Dmajor
fe|"D" fef gfe|"D" fdF "G" G2E|"D" FGA "G" GBd|"A" Ace efg|
"D" fef gfe|"D" fdF "G" G2E|"D" FGA "G" Ged|"A" cBc "D" d2e|
"D" fed c2A|"A" cdc ABG|"D" FGA "G" GBd|"A" Ace efg|
"D" fef "G" g2e|"D" fdF "G" G2E|"D" FGA "G" Ged|"A" cBc "D" d||
AG|"D" ~F3 Bcd|"F#m" c3 cBA|"G" ~G3 d2e|"G" dBG G2B|
"D" AFD DF/G/A|"D" ~f3 fed|"A" e2d e2f|"G" ~g3 gfe|
"D" F2c cdc|"F#m" c3 cBA|"G" ~G3 d2e|"G" dBG G2B|
"D" AFD DF/G/A|"D" ~f3 fed|"A" e2d e2f|"G" ~g3 g||
P: to finish add:
fe|"D" fef gfe|"D" fdF "G" G2E|"D" FGA "G" GBd|"A" Adc d3||

